X: 602
T: Dönülmez Akşamın Ufkundayız
C: Münir Nurettin Selçuk
O: Turkey
F: http://compmusic.upf.edu/node/140
N: segah--sarki--duyek--donulmez_aksamin--munir_nurettin_selcuk
N: makam= segah
N: form= sarki
N: usul= duyek = 8/4
M: 8/4
L: 1/16
K: C _1/4B _1/4e ^f 
Q: 1/4=138
%%MIDI tuningsystem comma53
G2 B4 B2 c2 B^A B4  | B2 d4 c2 B2 {c}B^A G4  | \
w:  ARANAĞME  |   | 
f3e e3d d3c c3B  | 
w:   | 
d12 z4  | f3e e3d d3c c/B/c/d/ cB  | \
w:   |   | 
B8 G^A G2 B4  | B8 G2 B4 B2  | 
w:   |  Ah  dö nül mez_  | 
B4 B2 B2 c4 d4  | c2 B6 .G2 z2 .B2 z2  | \
w:  ak şa mın_ uf kun  |  da yız  SAZ  | 
B2 d2 c2 B2 B3^A G2 A2  | B8 c2 B^A B2 z2  | 
w:  va kit  *  *  çok   |  geç   SAZ  | 
B2 d4 d2 d4 d4  | e4 =f3e d4 z4  | d2 g2 =f2 e2 d3c B2 d2  | \
w:  Bu  son  fa sıl dır_  |  ey  öm *  rüm   |  na sıl  *  ge çer *  sen   | 
d8 c2 B2 d4  | 
w:  geç   SAZ  | 
d2 g4 f2 e4 g4  | f3e d3c B4 z4  | f2 e4 ed d3c c3B  | \
w:  Bu  son  fa sıl dır_  |  ey  *  öm *  rüm   |  na sıl  ge *  çer *  sen   | 
B8 G^A G2 B4  | 
w:  geç   SAZ  | 
G2 B6 B2 d6  | dc de d2 c2 B3^A G4  | \
w:   |   | 
f3e e3d d3c c/B/c/d/ cB  | 
w:   | 
B6 z2 g2 f^e f4  | B2 f4 f2 f4 f2 f2  | \
w:   |  Ci hâ na  bir  da ha   | 
z2 g2 f2 ^e2 f2 g2 a4  | a2 _b4 ba a3g g2 {a}gf  | 
w:  gel *  *  mek   |  ha yâl_ e *  dil *  se  *  bi  | 
f2 c'4 _ba ag f^e f4  | f2 g4 g2 g4 a2 ag  | \
w:  le   SAZ  |  A vun mak_ is te me  | 
g6 =f=e dc BA G4  | 
w:  yiz  SAZ  | 
z2 c'4 c'b b3a g2 b2  | a8 d4 b2 ag  | \
w:  böy le  *  bir  *  *  te  |  sel liy  | 
f2 g4 a2 g2 f2 =e2 d2  | d2 g6 d2 b6  | 
w:  le   *  SAZ  |   | 
z2 c'2 b2 a2 g2 f2 e2 d2  | z2 c'4 c'b b3a ab ag  | \
w:   |   | 
g6 ^ab c'3/2b/ ac' b4  | 
w:  (Ah)  SAZ  | 
g2 b4 b2 b4 b2 b2  | z8  | b4 b4  | z16  | \
w:  ge niş  ka nat la rı   |  |  boş luk  |  | 
b2 c'4 c'b b3/2^a/ g2 a2 b2  | c'14 b2  | 
w:  ta  sim si *  yah_ *  *  a çı  |  lan    | 
b2 d'4 d'2 d'3c' c'2 c'b  | b4 b3^a a2 a4 g2  | \
w:  Ve  ar ka sın *  da  gü  |  neş  doğ *  ma yan   | 
g2 c'2 _7/8b2 a2 a3g g2 gf  | 
w:  bü yük  *  *  *  *  ka pı  | 
f2 c'4 b^a ag f^e f4  | f2 g4 g2 g4 a2 ag  | \
w:  dan   SAZ  |  Ge çin ce  baş la ya  | 
g4 z2 d2 _7/8e2 f2 g4  | 
w:  cak  SAZ  | 
z2 g4 b_a a6 ag  | g3f f3_7/8e g3f fe ed  | \
w:  bit me *  yen  sü  |  kûn *  *  *  *  *  lu  *  ge  | 
d4 z2 (3_edc B2 c2 d4  | 
w:  ce   SAZ  | 
c2 c4 g2 g4 g2 g=f  | _a3g g3=f f2 f_e e2 ed  | \
w:  Gu rû ba  kar şı  bu   |  son  *  bah *  çe ler *  *  de   | 
d3c _B2 c2 d4 _7/8e4  | 
w:  key *  fin *  ce  ah    | 
d2 _e4 e2 e3d c2 d2  | _e6 d2 _7/8e6 d2  | \
w:  Ya  aşk_ i çin *  de  ha  |  râb_ *  ol   | 
d2 g2 f2 e2 d3c B2 c2  | d4 z2 e2 d2 c2 B2 A2  | 
w:  ya  şevk_ *  i çin *  de  gö  |  nül   SAZ  | 
G2 B4 B2 B4 B2 B2  | d4 B4 c2 B2 A2 G2  | \
w:  Ya  lâ le  aç ma lı  |  dır  göğ sü müz *  de   | 
z2 f2 e2 d2 d3c c3B  | d4 c4 B4 A4  | 
w:  ya *  *  hut   |  gül   SAZ  | 
G2 B4 B2 B4 B2 B2  | d4 B4 c2 B2 A2 G2  | \
w:  Ya  lâ le  aç ma lı  |  dır  göğ sü müz *  de   | 
z2 f2 e2 d2 d3c c2 {d}cB  | 
w:  ya *  *  hut   | 
B^A B8 z6  | |


